Yaru++/places/scalable/network-workgroup.svg

<svg height="256" viewBox="0 0 67.73 67.73" width="256" xmlns="http://www.w3.org/2000/svg" xmlns:xlink="http://www.w3.org/1999/xlink"><filter id="a" color-interpolation-filters="sRGB" height="2.62" width="2.62" x="-.81" y="-.81"><feGaussianBlur stdDeviation="2.7"/></filter><linearGradient id="b" gradientUnits="userSpaceOnUse" x1="21.10001124" x2="46.498761" y1="4.03416964" y2="63.29791908"><stop offset="0" stop-color="#8c59d9"/><stop offset="1" stop-color="#a7a7f1"/></linearGradient><filter id="c" color-interpolation-filters="sRGB" height="1.096" width="1.096" x="-.048" y="-.048"><feGaussianBlur stdDeviation="4.48"/></filter><filter id="d" color-interpolation-filters="sRGB" height="1.024" width="1.024" x="-.012" y="-.012"><feGaussianBlur stdDeviation="1.12"/></filter><circle cx="122.752" cy="122.752" filter="url(#d)" opacity=".1" r="112" transform="matrix(.26457031 0 0 .26457031 1.322852 1.454082)"/><circle cx="122.752" cy="122.752" filter="url(#c)" opacity=".2" r="112" transform="matrix(.26457031 0 0 .26457031 1.322852 1.454082)"/><circle cx="33.799385" cy="33.666042" fill="url(#b)" r="29.631874"/><g fill="#fff"><circle cx="19.512619" cy="27.845501" r="1.058281"/><circle cx="24.804026" cy="49.011124" r="1.058281"/><circle cx="40.678242" cy="38.428314" r="1.058281"/><circle cx="45.969646" cy="22.554096" r="1.058281"/><path d="m20.05465 7.4322466a29.631875 29.631875 0 0 0 -.557562.3198613c-.537036 6.7835261-.645994 13.4334431-.151404 19.7673301-4.046287-2.490794-7.948811-5.111001-11.7082703-7.732999a29.631875 29.631875 0 0 0 -.233049.482635c3.6606953 2.551265 7.4600223 5.101709 11.3971923 7.534571-5.087874 1.841671-9.9545253 4.201083-14.5854713 7.234344a29.631875 29.631875 0 0 0 .02222.616468c4.791431-3.172198 9.8415983-5.611333 15.1357983-7.495296.0088.0054.0176.01066.02635.01601.305008 3.587943.805649 7.072491 1.536783 10.41849.790306 3.616809 1.850159 7.072782 3.21825 10.32496-2.058458.702037-4.117704 1.246883-6.107339 1.657699-2.813496.580925-5.481975.893695-7.812575 1.016424a29.631875 29.631875 0 0 0 .365335.507954c2.276421-.13573 4.846383-.446984 7.554205-1.00609 2.021064-.417304 4.115191-.971814 6.21017-1.68767 2.267063 5.235558 5.353802 9.926766 9.425317 13.89046a29.631875 29.631875 0 0 0 .0088.000529 29.631875 29.631875 0 0 0 .728084-.02585c-4.192614-3.975865-7.353795-8.716909-9.661983-14.038244 5.763037-2.041358 11.485963-5.334219 15.665973-10.441743 6.741129 2.55209 13.781282 4.338146 21.100001 4.935374a29.631875 29.631875 0 0 0 .188091-.51519c-15.167692-1.203449-29.161956-7.57613-41.802109-15.28151 8.034486-2.780462 16.628053-4.302159 25.73928-5.155505-1.219513 5.111745-2.991959 10.04486-5.185991 14.747726l.479534.223234c2.231984-4.78423 4.031949-9.808944 5.261436-15.019535 4.742407-.429286 9.623938-.682448 14.638178-.842799a29.631875 29.631875 0 0 0 -.234093-.522943c-4.882823.158907-9.643297.407925-14.276463.82265 1.065126-4.677178 1.666393-9.502688 1.702655-14.4382015a29.631875 29.631875 0 0 0 -.528625-.2728382c-.01561 5.0473387-.626532 9.9808597-1.726941 14.7596117-9.197996.851819-17.88671 2.378829-26.01677 5.189611-.495237-6.394472-.373237-13.122336.184993-19.9895284zm-.09353 21.0834624c6.342451 3.853909 13.031874 7.375509 20.047403 10.078476-4.098546 4.941244-9.70013 8.15208-15.352831 10.151335-1.35983-3.227977-2.414116-6.662981-3.201197-10.265016-.699437-3.200946-1.187553-6.532794-1.493375-9.964795z" fill-rule="evenodd" opacity=".5"/><circle cx="68.752106" cy="99.751999" filter="url(#a)" r="4" transform="matrix(.26457031 0 0 .26457031 1.322852 1.454082)"/><circle cx="88.752106" cy="179.752" filter="url(#a)" r="4" transform="matrix(.26457031 0 0 .26457031 1.322852 1.454082)"/><circle cx="148.75211" cy="139.752" filter="url(#a)" r="4" transform="matrix(.26457031 0 0 .26457031 1.322852 1.454082)"/><circle cx="168.75211" cy="79.752007" filter="url(#a)" r="4" transform="matrix(.26457031 0 0 .26457031 1.322852 1.454082)"/></g><path d="m33.799387 63.297919a29.631875 29.631875 0 0 1 -29.6318753-29.631875 29.631875 29.631875 0 0 1 .01085-.309526 29.631875 29.631875 0 0 0 29.6210223 29.41226 29.631875 29.631875 0 0 0 29.621022-29.322348 29.631875 29.631875 0 0 1 .01085.219614 29.631875 29.631875 0 0 1 -29.631875 29.631875z" opacity=".2"/><path d="m33.799387 4.0341701a29.631875 29.631875 0 0 0 -29.6318753 29.6318739 29.631875 29.631875 0 0 0 .010853.309526 29.631875 29.631875 0 0 1 29.6210223-29.4122593 29.631875 29.631875 0 0 1 29.621022 29.3223483 29.631875 29.631875 0 0 0 .010848-.219615 29.631875 29.631875 0 0 0 -29.631875-29.6318739z" fill="#fff" opacity=".3"/></svg>

<?xml version="1.0" encoding="UTF-8" standalone="no"?>
<svg
   xmlns:dc="http://purl.org/dc/elements/1.1/"
   xmlns:cc="http://creativecommons.org/ns#"
   xmlns:rdf="http://www.w3.org/1999/02/22-rdf-syntax-ns#"
   xmlns:svg="http://www.w3.org/2000/svg"
   xmlns="http://www.w3.org/2000/svg"
   xmlns:xlink="http://www.w3.org/1999/xlink"
   xmlns:sodipodi="http://sodipodi.sourceforge.net/DTD/sodipodi-0.dtd"
   xmlns:inkscape="http://www.inkscape.org/namespaces/inkscape"
   height="256"
   viewBox="0 0 67.73 67.73"
   width="256"
   version="1.1"
   id="svg50"
   sodipodi:docname="network-workgroup.svg"
   inkscape:version="0.92.4 (5da689c313, 2019-01-14)">
  <metadata
     id="metadata56">
    <rdf:RDF>
      <cc:Work
         rdf:about="">
        <dc:format>image/svg+xml</dc:format>
        <dc:type
           rdf:resource="http://purl.org/dc/dcmitype/StillImage" />
      </cc:Work>
    </rdf:RDF>
  </metadata>
  <defs
     id="defs54">
    <filter
       inkscape:collect="always"
       style="color-interpolation-filters:sRGB"
       id="filter1140"
       x="-0.81"
       width="2.6199999"
       y="-0.81"
       height="2.6199999">
      <feGaussianBlur
         inkscape:collect="always"
         stdDeviation="2.7"
         id="feGaussianBlur1142" />
    </filter>
    <filter
       inkscape:collect="always"
       style="color-interpolation-filters:sRGB"
       id="filter1136"
       x="-0.81"
       width="2.6199999"
       y="-0.81"
       height="2.6199999">
      <feGaussianBlur
         inkscape:collect="always"
         stdDeviation="2.7"
         id="feGaussianBlur1138" />
    </filter>
    <filter
       inkscape:collect="always"
       style="color-interpolation-filters:sRGB"
       id="filter1132"
       x="-0.81"
       width="2.6199999"
       y="-0.81"
       height="2.6199999">
      <feGaussianBlur
         inkscape:collect="always"
         stdDeviation="2.7"
         id="feGaussianBlur1134" />
    </filter>
    <filter
       inkscape:collect="always"
       style="color-interpolation-filters:sRGB"
       id="filter1128"
       x="-0.81"
       width="2.6199999"
       y="-0.81"
       height="2.6199999">
      <feGaussianBlur
         inkscape:collect="always"
         stdDeviation="2.7"
         id="feGaussianBlur1130" />
    </filter>
    <linearGradient
       inkscape:collect="always"
       xlink:href="#linearGradient4195"
       id="linearGradient11065"
       x1="104"
       y1="44"
       x2="200"
       y2="268"
       gradientUnits="userSpaceOnUse"
       gradientTransform="matrix(0.26457031,0,0,0.26457031,-6.4153005,-7.6069238)" />
    <linearGradient
       inkscape:collect="always"
       id="linearGradient4195">
      <stop
         style="stop-color:#8c59d9;stop-opacity:1"
         offset="0"
         id="stop4197" />
      <stop
         style="stop-color:#a7a7f1;stop-opacity:1"
         offset="1"
         id="stop4199" />
    </linearGradient>
    <filter
       inkscape:collect="always"
       style="color-interpolation-filters:sRGB"
       id="filter48952"
       x="-0.048"
       width="1.096"
       y="-0.048"
       height="1.096">
      <feGaussianBlur
         inkscape:collect="always"
         stdDeviation="4.48"
         id="feGaussianBlur48954" />
    </filter>
    <filter
       inkscape:collect="always"
       style="color-interpolation-filters:sRGB"
       id="filter48967"
       x="-0.012"
       width="1.024"
       y="-0.012"
       height="1.024">
      <feGaussianBlur
         inkscape:collect="always"
         stdDeviation="1.12"
         id="feGaussianBlur48969" />
    </filter>
  </defs>
  <sodipodi:namedview
     pagecolor="#ffffff"
     bordercolor="#666666"
     borderopacity="1"
     objecttolerance="10"
     gridtolerance="10"
     guidetolerance="10"
     inkscape:pageopacity="0"
     inkscape:pageshadow="2"
     inkscape:window-width="1920"
     inkscape:window-height="1016"
     id="namedview52"
     showgrid="false"
     inkscape:zoom="0.921875"
     inkscape:cx="128"
     inkscape:cy="55.336944"
     inkscape:window-x="0"
     inkscape:window-y="27"
     inkscape:window-maximized="1"
     inkscape:current-layer="svg50" />
  <filter
     id="a"
     color-interpolation-filters="sRGB"
     height="2.62"
     width="2.62"
     x="-.81"
     y="-.81">
    <feGaussianBlur
       stdDeviation="2.7"
       id="feGaussianBlur2" />
  </filter>
  <linearGradient
     id="b"
     gradientUnits="userSpaceOnUse"
     x1="21.10001124"
     x2="46.498761"
     y1="3.24045864"
     y2="62.50420808">
    <stop
       offset="0"
       stop-color="#8c59d9"
       id="stop5" />
    <stop
       offset="1"
       stop-color="#a7a7f1"
       id="stop7" />
  </linearGradient>
  <filter
     id="c"
     color-interpolation-filters="sRGB"
     height="1.024"
     width="1.024"
     x="-.012"
     y="-.012">
    <feGaussianBlur
       stdDeviation="1.12"
       id="feGaussianBlur10" />
  </filter>
  <filter
     id="d"
     color-interpolation-filters="sRGB"
     height="1.096"
     width="1.096"
     x="-.048"
     y="-.048">
    <feGaussianBlur
       stdDeviation="4.48"
       id="feGaussianBlur13" />
  </filter>
  <circle
     style="display:inline;opacity:0.1;fill:#000000;fill-opacity:1;stroke:none;stroke-width:1;stroke-linecap:round;stroke-linejoin:round;stroke-miterlimit:4;stroke-dasharray:none;stroke-opacity:1;filter:url(#filter48967);enable-background:new"
     id="path11042-4"
     r="112"
     cy="122.752"
     cx="122.752"
     transform="matrix(0.26457031,0,0,0.26457031,1.3228519,1.454082)" />
  <circle
     style="display:inline;opacity:0.2;fill:#000000;fill-opacity:1;stroke:none;stroke-width:1;stroke-linecap:round;stroke-linejoin:round;stroke-miterlimit:4;stroke-dasharray:none;stroke-opacity:1;filter:url(#filter48952);enable-background:new"
     id="path11042-9"
     r="112"
     cy="122.752"
     cx="122.752"
     transform="matrix(0.26457031,0,0,0.26457031,1.3228519,1.454082)" />
  <circle
     style="display:inline;opacity:1;fill:url(#linearGradient11065);fill-opacity:1;stroke:none;stroke-width:0.26457033;stroke-linecap:round;stroke-linejoin:round;stroke-miterlimit:4;stroke-dasharray:none;stroke-opacity:1;enable-background:new"
     id="path11042"
     r="29.631874"
     cy="33.666042"
     cx="33.799385" />
  <circle
     style="display:inline;opacity:1;fill:#ffffff;fill-opacity:1;stroke:none;stroke-width:1.0582813;stroke-linecap:square;stroke-linejoin:round;stroke-miterlimit:4;stroke-dasharray:none;stroke-dashoffset:0;stroke-opacity:1;enable-background:new"
     id="path1082"
     cx="19.512619"
     cy="27.845501"
     r="1.0582813" />
  <circle
     r="1.0582813"
     cy="49.011124"
     cx="24.804026"
     id="circle1090"
     style="display:inline;opacity:1;fill:#ffffff;fill-opacity:1;stroke:none;stroke-width:1.0582813;stroke-linecap:square;stroke-linejoin:round;stroke-miterlimit:4;stroke-dasharray:none;stroke-dashoffset:0;stroke-opacity:1;enable-background:new" />
  <circle
     style="display:inline;opacity:1;fill:#ffffff;fill-opacity:1;stroke:none;stroke-width:1.0582813;stroke-linecap:square;stroke-linejoin:round;stroke-miterlimit:4;stroke-dasharray:none;stroke-dashoffset:0;stroke-opacity:1;enable-background:new"
     id="circle1092"
     cx="40.678242"
     cy="38.428314"
     r="1.0582813" />
  <circle
     r="1.0582813"
     cy="22.554096"
     cx="45.969646"
     id="circle1094"
     style="display:inline;opacity:1;fill:#ffffff;fill-opacity:1;stroke:none;stroke-width:1.0582813;stroke-linecap:square;stroke-linejoin:round;stroke-miterlimit:4;stroke-dasharray:none;stroke-dashoffset:0;stroke-opacity:1;enable-background:new" />
  <path
     style="color:#000000;font-style:normal;font-variant:normal;font-weight:normal;font-stretch:normal;font-size:medium;line-height:normal;font-family:sans-serif;font-variant-ligatures:normal;font-variant-position:normal;font-variant-caps:normal;font-variant-numeric:normal;font-variant-alternates:normal;font-feature-settings:normal;text-indent:0;text-align:start;text-decoration:none;text-decoration-line:none;text-decoration-style:solid;text-decoration-color:#000000;letter-spacing:normal;word-spacing:normal;text-transform:none;writing-mode:lr-tb;direction:ltr;text-orientation:mixed;dominant-baseline:auto;baseline-shift:baseline;text-anchor:start;white-space:normal;shape-padding:0;clip-rule:nonzero;display:inline;overflow:visible;visibility:visible;opacity:0.5;isolation:auto;mix-blend-mode:normal;color-interpolation:sRGB;color-interpolation-filters:linearRGB;solid-color:#000000;solid-opacity:1;vector-effect:none;fill:#ffffff;fill-opacity:1;fill-rule:evenodd;stroke:none;stroke-width:0.52914065;stroke-linecap:butt;stroke-linejoin:miter;stroke-miterlimit:4;stroke-dasharray:none;stroke-dashoffset:0;stroke-opacity:1;color-rendering:auto;image-rendering:auto;shape-rendering:auto;text-rendering:auto;enable-background:accumulate"
     d="M 20.05465,7.4322466 A 29.631875,29.631875 0 0 0 19.497088,7.7521079 C 18.960052,14.535634 18.851094,21.185551 19.345684,27.519438 15.299397,25.028644 11.396873,22.408437 7.6374137,19.786439 a 29.631875,29.631875 0 0 0 -0.233049,0.482635 c 3.6606953,2.551265 7.4600223,5.101709 11.3971923,7.534571 -5.087874,1.841671 -9.9545253,4.201083 -14.5854713,7.234344 a 29.631875,29.631875 0 0 0 0.02222,0.616468 c 4.791431,-3.172198 9.8415983,-5.611333 15.1357983,-7.495296 0.0088,0.0054 0.0176,0.01066 0.02635,0.01601 0.305008,3.587943 0.805649,7.072491 1.536783,10.41849 0.790306,3.616809 1.850159,7.072782 3.21825,10.32496 -2.058458,0.702037 -4.117704,1.246883 -6.107339,1.657699 -2.813496,0.580925 -5.481975,0.893695 -7.812575,1.016424 a 29.631875,29.631875 0 0 0 0.365335,0.507954 c 2.276421,-0.13573 4.846383,-0.446984 7.554205,-1.00609 2.021064,-0.417304 4.115191,-0.971814 6.21017,-1.68767 2.267063,5.235558 5.353802,9.926766 9.425317,13.89046 a 29.631875,29.631875 0 0 0 0.0088,5.29e-4 29.631875,29.631875 0 0 0 0.728084,-0.02585 C 30.33487,59.296212 27.173689,54.555168 24.865501,49.233833 30.628538,47.192475 36.351464,43.899614 40.531474,38.79209 c 6.741129,2.55209 13.781282,4.338146 21.100001,4.935374 a 29.631875,29.631875 0 0 0 0.188091,-0.51519 C 46.651874,42.008825 32.65761,35.636144 20.017457,27.930764 c 8.034486,-2.780462 16.628053,-4.302159 25.73928,-5.155505 -1.219513,5.111745 -2.991959,10.04486 -5.185991,14.747726 l 0.479534,0.223234 c 2.231984,-4.78423 4.031949,-9.808944 5.261436,-15.019535 4.742407,-0.429286 9.623938,-0.682448 14.638178,-0.842799 a 29.631875,29.631875 0 0 0 -0.234093,-0.522943 c -4.882823,0.158907 -9.643297,0.407925 -14.276463,0.82265 1.065126,-4.677178 1.666393,-9.502688 1.702655,-14.4382015 A 29.631875,29.631875 0 0 0 47.613368,7.4725523 c -0.01561,5.0473387 -0.626532,9.9808597 -1.726941,14.7596117 -9.197996,0.851819 -17.88671,2.378829 -26.01677,5.189611 C 19.37442,21.027303 19.49642,14.299439 20.05465,7.4322466 Z M 19.96112,28.515709 c 6.342451,3.853909 13.031874,7.375509 20.047403,10.078476 -4.098546,4.941244 -9.70013,8.15208 -15.352831,10.151335 -1.35983,-3.227977 -2.414116,-6.662981 -3.201197,-10.265016 -0.699437,-3.200946 -1.187553,-6.532794 -1.493375,-9.964795 z"
     id="path1096"
     inkscape:connector-curvature="0" />
  <circle
     r="4"
     cy="99.751999"
     cx="68.752106"
     id="circle1104"
     style="display:inline;opacity:1;fill:#ffffff;fill-opacity:1;stroke:none;stroke-width:4;stroke-linecap:square;stroke-linejoin:round;stroke-miterlimit:4;stroke-dasharray:none;stroke-dashoffset:0;stroke-opacity:1;filter:url(#filter1128);enable-background:new"
     transform="matrix(0.26457031,0,0,0.26457031,1.3228519,1.454082)" />
  <circle
     style="display:inline;opacity:1;fill:#ffffff;fill-opacity:1;stroke:none;stroke-width:4;stroke-linecap:square;stroke-linejoin:round;stroke-miterlimit:4;stroke-dasharray:none;stroke-dashoffset:0;stroke-opacity:1;filter:url(#filter1132);enable-background:new"
     id="circle1106"
     cx="88.752106"
     cy="179.752"
     r="4"
     transform="matrix(0.26457031,0,0,0.26457031,1.3228519,1.454082)" />
  <circle
     r="4"
     cy="139.752"
     cx="148.75211"
     id="circle1108"
     style="display:inline;opacity:1;fill:#ffffff;fill-opacity:1;stroke:none;stroke-width:4;stroke-linecap:square;stroke-linejoin:round;stroke-miterlimit:4;stroke-dasharray:none;stroke-dashoffset:0;stroke-opacity:1;filter:url(#filter1136);enable-background:new"
     transform="matrix(0.26457031,0,0,0.26457031,1.3228519,1.454082)" />
  <circle
     style="display:inline;opacity:1;fill:#ffffff;fill-opacity:1;stroke:none;stroke-width:4;stroke-linecap:square;stroke-linejoin:round;stroke-miterlimit:4;stroke-dasharray:none;stroke-dashoffset:0;stroke-opacity:1;filter:url(#filter1140);enable-background:new"
     id="circle1110"
     cx="168.75211"
     cy="79.752007"
     r="4"
     transform="matrix(0.26457031,0,0,0.26457031,1.3228519,1.454082)" />
  <path
     inkscape:connector-curvature="0"
     style="display:inline;opacity:0.2;fill:#000000;fill-opacity:1;stroke:none;stroke-width:0.26457033;stroke-linecap:round;stroke-linejoin:round;stroke-miterlimit:4;stroke-dasharray:none;stroke-opacity:1;enable-background:new"
     d="M 33.799387,63.297919 A 29.631875,29.631875 0 0 1 4.1675117,33.666044 a 29.631875,29.631875 0 0 1 0.01085,-0.309526 29.631875,29.631875 0 0 0 29.6210223,29.41226 29.631875,29.631875 0 0 0 29.621022,-29.322348 29.631875,29.631875 0 0 1 0.01085,0.219614 29.631875,29.631875 0 0 1 -29.631875,29.631875 z"
     id="path11042-1-7" />
  <path
     style="display:inline;opacity:0.3;fill:#ffffff;fill-opacity:1;stroke:none;stroke-width:0.26457033;stroke-linecap:round;stroke-linejoin:round;stroke-miterlimit:4;stroke-dasharray:none;stroke-opacity:1;enable-background:new"
     d="M 33.799387,4.0341701 A 29.631875,29.631875 0 0 0 4.1675117,33.666044 29.631875,29.631875 0 0 0 4.1783647,33.97557 29.631875,29.631875 0 0 1 33.799387,4.5633107 29.631875,29.631875 0 0 1 63.420409,33.885659 29.631875,29.631875 0 0 0 63.431257,33.666044 29.631875,29.631875 0 0 0 33.799382,4.0341701 Z"
     id="path11042-1"
     inkscape:connector-curvature="0" />
</svg>
